X:188
T:Childwall Chimes
C:Kathleen Freeman and Milly Roberts
L:1/4
M:2/2
R:Reel
S:Colin Hume's website,  colinhume.com  - chords can also be printed below the stave.
Q:1/2=112
K:G
"G"d>e "D7"dc | "G"BA "Em"BG | "A7"A>B AG | "D7"FE FD |\
"G"GG "D7"AA | "G"BB dB | "A7"A (3B/A/G/ FG | "D"A2 zg |
"C"ec Af | "G"dB G2 | "D7"cc dc | "G"Bc "Em"dg |\
"C"fe "D7"dc | "G"BA "Em"GB | "Am"ce "D7"Af | "G"g4 |]

